public/images/users.svg

<svg width="20" height="20" viewBox="0 0 20 20" fill="none" xmlns="http://www.w3.org/2000/svg">
<g clip-path="url(#clip0)">
<path d="M14.1666 17.5V15.8333C14.1666 14.9493 13.8154 14.1014 13.1903 13.4763C12.5652 12.8512 11.7173 12.5 10.8333 12.5H4.16659C3.28253 12.5 2.43468 12.8512 1.80956 13.4763C1.18444 14.1014 0.833252 14.9493 0.833252 15.8333V17.5" stroke="url(#paint0_linear)" stroke-width="2" stroke-linecap="round" stroke-linejoin="round"/>
<path d="M7.50008 9.16667C9.34103 9.16667 10.8334 7.67428 10.8334 5.83333C10.8334 3.99238 9.34103 2.5 7.50008 2.5C5.65913 2.5 4.16675 3.99238 4.16675 5.83333C4.16675 7.67428 5.65913 9.16667 7.50008 9.16667Z" stroke="url(#paint1_linear)" stroke-width="2" stroke-linecap="round" stroke-linejoin="round"/>
<path d="M19.1667 17.5V15.8333C19.1662 15.0948 18.9204 14.3773 18.4679 13.7936C18.0154 13.2099 17.3819 12.793 16.6667 12.6083" stroke="url(#paint2_linear)" stroke-width="2" stroke-linecap="round" stroke-linejoin="round"/>
<path d="M13.3333 2.60833C14.0503 2.79192 14.6858 3.20892 15.1396 3.79359C15.5935 4.37827 15.8398 5.09736 15.8398 5.8375C15.8398 6.57764 15.5935 7.29673 15.1396 7.88141C14.6858 8.46608 14.0503 8.88308 13.3333 9.06667" stroke="url(#paint3_linear)" stroke-width="2" stroke-linecap="round" stroke-linejoin="round"/>
</g>
<defs>
<linearGradient id="paint0_linear" x1="16.7921" y1="4.93616" x2="15.2891" y2="18.9475" gradientUnits="userSpaceOnUse">
<stop stop-color="#5498FF"/>
<stop offset="0.515625" stop-color="#428EFF"/>
<stop offset="1" stop-color="#297FFF"/>
</linearGradient>
<linearGradient id="paint1_linear" x1="12.1462" y1="-7.58512" x2="7.14978" y2="9.88245" gradientUnits="userSpaceOnUse">
<stop stop-color="#5498FF"/>
<stop offset="0.515625" stop-color="#428EFF"/>
<stop offset="1" stop-color="#297FFF"/>
</linearGradient>
<linearGradient id="paint2_linear" x1="19.659" y1="5.20838" x2="13.7498" y2="15.7666" gradientUnits="userSpaceOnUse">
<stop stop-color="#5498FF"/>
<stop offset="0.515625" stop-color="#428EFF"/>
<stop offset="1" stop-color="#297FFF"/>
</linearGradient>
<linearGradient id="paint3_linear" x1="16.3333" y1="-7.16163" x2="7.59051" y2="4.70108" gradientUnits="userSpaceOnUse">
<stop stop-color="#5498FF"/>
<stop offset="0.515625" stop-color="#428EFF"/>
<stop offset="1" stop-color="#297FFF"/>
</linearGradient>
<clipPath id="clip0">
<rect width="20" height="20" fill="white"/>
</clipPath>
</defs>
</svg>

<?xml version="1.0" encoding="utf-8"?>
<!-- Generator: Adobe Illustrator 23.0.1, SVG Export Plug-In . SVG Version: 6.00 Build 0)  -->
<svg version="1.1" id="Camada_1" xmlns="http://www.w3.org/2000/svg" xmlns:xlink="http://www.w3.org/1999/xlink" x="0px" y="0px"
	 viewBox="0 0 20 20" style="enable-background:new 0 0 20 20;" xml:space="preserve">
<style type="text/css">
	.st0{clip-path:url(#SVGID_2_);}
	.st1{fill:none;stroke:#8257E5;stroke-width:2;stroke-linecap:round;stroke-linejoin:round;}
</style>
<g>
	<defs>
		<rect id="SVGID_1_" width="20" height="20"/>
	</defs>
	<clipPath id="SVGID_2_">
		<use xlink:href="#SVGID_1_"  style="overflow:visible;"/>
	</clipPath>
	<g class="st0">
		<path class="st1" d="M14.2,17.5v-1.7c0-0.9-0.4-1.7-1-2.4s-1.5-1-2.4-1H4.2c-0.9,0-1.7,0.4-2.4,1s-1,1.5-1,2.4v1.7"/>
		<path class="st1" d="M7.5,9.2c1.8,0,3.3-1.5,3.3-3.3S9.3,2.5,7.5,2.5S4.2,4,4.2,5.8S5.7,9.2,7.5,9.2z"/>
		<path class="st1" d="M19.2,17.5v-1.7c0-0.7-0.2-1.5-0.7-2c-0.5-0.6-1.1-1-1.8-1.2"/>
		<path class="st1" d="M13.3,2.6c0.7,0.2,1.4,0.6,1.8,1.2c0.5,0.6,0.7,1.3,0.7,2s-0.2,1.5-0.7,2c-0.5,0.6-1.1,1-1.8,1.2"/>
	</g>
</g>
</svg>
